X:346
T: HIS EM UP HURO JOLLEY
N: E1502
O: Europa, Mitteleuropa, Deutschland, Helgoland
R: Staende -, Seemanns - Lied, bei der Arbeit
M: 2/4
L: 1/16
K: G
 | B2A2G2F2 | G4E2E2 |
A2A2A2A2 | A4D2D2 |
G2A2B2Ac | B4A2Bd |
c4B4 | cBAGA4 | D2D2z4

@@@ Tune index: 5030
